!!!OTL: 683b. Leichter Trost.
!!!ARE: Europa, Mitteleuropa, Deutschland, Vormark, Priegnitz
!!!SCT: E0683A
!!!TXL: @@DE
!!!YEM: Copyright 1995, estate of Helmut Schaffrath.
**kern	**text
*ICvox	*
*M2/4	*
*k[f#]	*
*G:	*
!LO:TX:a:t=As der Vormark.	!
{8d	Wol
=1	=1
8.g	un-
16d	-ter
8g	ei-
8a	-ner
=2	=2
8bL	Lin-
8gJ	.
4a}	-de
=3	=3
{4b/	ſchlief
16aL	ich
16gJ	.
8a	die
=4	=4
4g	Nacht,
8r}	.
{16bL	in
16ccJ	.
=5	=5
8dd	mein
8dd	feins
8dd	Lieb-
16bL	-chen
16ccJ	.
=6	=6
8ddL	Ar-
8bJ	.
4g}	-men
=7	=7
{4b	die
16ddL	gan-
16ccJ	.
8a	-ʒe
=8	=8
4g	Nacht.
8r}	.
==	==
!!!AGN: Liebes - Lied, Leid, Klage
!!!ONB: ESAC (Essen Associative Code) Database: ERK2
!!!AMT: simple duple
!!!AIN: vox
!!!EED: Helmut Schaffrath
!!!EEV: 1.0
!!!GTL: Liebeslieder [Neuere (aus dem 18. bis 19. Jahrh.) - Liebesleid] 678-740
!!!URL-scan: https://rosdok.uni-rostock.de/mcrviewer/recordIdentifier/rosdok_ppn745177662/iview2/phys_0486.iview2?x=193.8995864193107&y=347.02060200390406&scale=0.7029437510502773&rotation=0&layout=singlePageLayout
!!!ENC: Anna Maria Matuszewska
!!!EEV: 2024/12/16
*-	*-
